X:1
T:[ID 1-50]
T:[ID 1-50]
T:Bezeichnung standardisiert: Menuett Men:
T:Urheber unbekannt Datum in der hier transkribierten schriftlichen Quelle: vermutlich vor 1767
C:Urheber unbekannt
C:Datum in der hier transkribierten schriftlichen Quelle: vermutlich vor 1767
L:1/8
M:3/4
K:D
V:1 treble 
V:1
 d2 fdec | d2 g2 b2 | a2 gfed | c2 Bc A2 | d2 fdec | d2 fdec | d2 g2 fe | e6 :: e2 e3 f | c4 d2 | %10
 e2 dcBA | ^G2 FG E2 | EF"^\201"GABc | d2 cB c2 | B2 A2 ^G2 | A6 | d2 AB"^\203*"cA | B2 AB G2 | %18
 e2 Bcde | c2 Bc A2 | d2 fdec | d2 g2 b2 | a2 gfef | d6 :| %24

